picto/escalator-down-left-framed.svg

<svg class="color-immutable" width="30" height="30" viewBox="0 0 30 30" fill="none" xmlns="http://www.w3.org/2000/svg"><path d="M29.9999 0H0V29.9999H29.9999V0Z" fill="#2D327D"/><path d="M25.4999 2.99999C26.3249 2.99999 26.9999 3.67499 26.9999 4.49999V25.4999C26.9999 26.3249 26.3249 26.9999 25.4999 26.9999H4.49999C3.67499 26.9999 2.99999 26.3249 2.99999 25.4999V4.49999C2.99999 3.67499 3.67499 2.99999 4.49999 2.99999H25.4999ZM25.4999 2.62499H4.49999C3.46612 2.62499 2.62499 3.46612 2.62499 4.49999V25.4999C2.62499 26.5338 3.46612 27.3749 4.49999 27.3749H25.4999C26.5338 27.3749 27.3749 26.5338 27.3749 25.4999V4.49999C27.3749 3.46612 26.5338 2.62499 25.4999 2.62499Z" fill="white"/><path d="M16.0926 7.97788C16.6308 7.97788 17.0676 7.54108 17.0676 7.00288C17.0676 6.46468 16.6308 6.02789 16.0926 6.02789C15.5544 6.02789 15.1176 6.46468 15.1176 7.00288C15.1176 7.54108 15.5544 7.97788 16.0926 7.97788Z" fill="white"/><path d="M12.3319 10.4052C12.8701 10.4052 13.3069 9.96837 13.3069 9.43018C13.3069 8.89198 12.8701 8.45518 12.3319 8.45518C11.7937 8.45518 11.3569 8.89198 11.3569 9.43018C11.3569 9.96837 11.7937 10.4052 12.3319 10.4052Z" fill="white"/><path d="M8.57117 10.943C8.03297 10.943 7.59617 11.3798 7.59617 11.918C7.59617 12.4562 8.03297 12.893 8.57117 12.893C9.10937 12.893 9.54617 12.4562 9.54617 11.918C9.54617 11.3798 9.10937 10.943 8.57117 10.943Z" fill="white"/><path d="M14.1506 11.3821C14.1254 11.4483 14.1125 11.5184 14.1125 11.5892C14.1125 11.91 14.373 12.1704 14.6938 12.1704C14.935 12.1704 15.151 12.0215 15.2368 11.7963L15.9359 9.96275L16.2863 10.0965L15.9722 10.9202L17.2501 10.0785V9.44285C17.2501 8.81352 16.7393 8.30285 16.1099 8.30285C15.637 8.30285 15.2132 8.59482 15.0448 9.0368L14.1506 11.3821Z" fill="white"/><path d="M10.4008 13.8521C10.3754 13.9182 10.3625 13.9884 10.3625 14.0592C10.3625 14.3802 10.6229 14.6405 10.9438 14.6405C11.185 14.6405 11.401 14.4917 11.487 14.2664L12.1859 12.433L12.5362 12.5666L12.2221 13.3905L13.5 12.5488V11.9132C13.5 11.2838 12.9893 10.7732 12.36 10.7732C11.887 10.7732 11.4633 11.0652 11.2947 11.507L10.4008 13.8521Z" fill="white"/><path d="M9.74992 15.0187V14.3831C9.74992 13.7538 9.23925 13.2431 8.60993 13.2431C8.13698 13.2431 7.71323 13.5351 7.54478 13.9769L6.65063 16.3222C6.62543 16.3883 6.61253 16.4586 6.61253 16.5294C6.61253 16.8501 6.87286 17.1105 7.19378 17.1105C7.43483 17.1105 7.65098 16.9616 7.73693 16.7362L8.43585 14.9028L8.78625 15.0364L8.47215 15.8603L9.74992 15.0187Z" fill="white"/><path d="M21.3752 15.75C22.8242 15.75 24.0002 14.5739 24.0002 13.1249C24.0002 11.6759 22.8242 10.4998 21.3752 10.4998H18.3795C18.1595 10.4998 17.9444 10.5643 17.7606 10.6854L5.99998 18.4319V23.9999L18.5252 15.75H21.3752Z" fill="white"/></svg>

<svg class="color-immutable" width="30" height="30" viewBox="0 0 30 30" fill="none" xmlns="http://www.w3.org/2000/svg"><path d="M30 0H0v30h30V0Z" fill="#2D327D"/><path d="M25.5 3c.825 0 1.5.675 1.5 1.5v21c0 .825-.675 1.5-1.5 1.5h-21c-.825 0-1.5-.675-1.5-1.5v-21C3 3.675 3.675 3 4.5 3h21Zm0-.375h-21A1.877 1.877 0 0 0 2.625 4.5v21c0 1.034.841 1.875 1.875 1.875h21a1.877 1.877 0 0 0 1.875-1.875v-21A1.877 1.877 0 0 0 25.5 2.625Z" fill="#fff"/><path d="M16.093 7.978a.975.975 0 1 0-.001-1.95.975.975 0 0 0 0 1.95ZM12.332 10.405a.975.975 0 1 0 0-1.95.975.975 0 0 0 0 1.95ZM8.571 10.943a.975.975 0 1 0 0 1.95.975.975 0 0 0 0-1.95ZM14.15 11.382a.582.582 0 0 0 1.087.414l.699-1.833.35.134-.314.823 1.278-.841v-.636a1.14 1.14 0 0 0-2.205-.406l-.894 2.345ZM10.4 13.852a.581.581 0 0 0 1.086.414l.7-1.833.35.134-.314.823 1.278-.841v-.636a1.14 1.14 0 0 0-2.205-.406l-.894 2.345ZM9.75 15.019v-.636a1.14 1.14 0 0 0-2.205-.406l-.894 2.345a.582.582 0 0 0 1.086.414l.699-1.833.35.133-.314.824 1.278-.841ZM21.375 15.75a2.626 2.626 0 0 0 0-5.25H18.38c-.22 0-.436.064-.62.185L6 18.432V24l12.525-8.25h2.85Z" fill="#fff"/></svg>
